logos/nih.svg

<svg width="88" height="53" viewBox="0 0 88 53" fill="none"
    xmlns="http://www.w3.org/2000/svg">
    <g clip-path="url(#clip0_1749_823)">
        <path d="M35.7999 46.2999C29.2999 46.2999 22.8 46.2999 16.3 46.2999C13.7 46.2999 12.2 44.8999 12.2 42.2999C12.2 31.7999 12.2 21.2 12.2 10.7C12.2 8.19995 13.7 6.69995 16.2 6.69995C29.3 6.69995 42.4 6.69995 55.5 6.69995C56.2 6.69995 56.5999 6.89995 57 7.49995C60.2999 13.6 63.6999 19.6 67.0999 25.7C67.3999 26.3 67.3999 26.6999 67.0999 27.2999C63.6999 33.4 60.3 39.5 56.9 45.5999C56.6 46.1999 56.2999 46.4 55.5999 46.4C49.0999 46.3 42.5 46.2999 35.7999 46.2999ZM21.6 22.9C21.7 22.9 21.7 22.7999 21.8 22.7999C22 23.0999 22.1 23.3 22.3 23.6C24.4 26.9 26.5 30.2 28.4 33.5C29.3 35 30.2 35.7 32 35.5C32.9 35.4 33.2 35.1999 33.2 34.2999C33.2 29.4 33.2 24.4 33.2 19.5C33.2 17.2 33.5 17.6 31.2 17.5C30.3 17.5 30 17.8 30 18.7C30 22.2 30 25.7 30 29.2C30 29.5 30 29.8 30 30.2C29.6 29.9 29.4 29.7 29.2 29.4C27 26 25 22.7 23 19.5C21.8 17.5 21.8 17.6 19.5 17.6C18.7 17.6 18.5 17.9 18.5 18.6C18.5 23.9 18.5 29.2 18.5 34.5C18.5 34.7999 18.5 35.1 18.6 35.5C19 35.5 19.3 35.5 19.7 35.5C21.7 35.5 21.7 35.4999 21.7 33.5999C21.6 29.9999 21.6 26.5 21.6 22.9ZM42.2999 35.5C43.0999 35.5 43.7999 35.5 44.5 35.5C45.2999 35.6 45.5 35.2999 45.5 34.5C45.5 32.5 45.5 30.4 45.5 28.4C45.5 27.7 45.7 27.5 46.4 27.5C48.5 27.5 50.5999 27.5 52.5999 27.5C53.1999 27.5 53.4 27.6999 53.4 28.2999C53.4 29.9 53.4 31.6 53.4 33.2C53.4 35.5 53.4 35.5 55.7 35.5C56.6 35.5 56.7999 35.2 56.7 34.4C56.7 29.4 56.7 24.4 56.7 19.4C56.7 17.3 57.0999 17.5 54.7999 17.5C53.3999 17.5 53.4 17.5 53.4 18.9C53.4 20.8 53.4 22.6 53.4 24.6C51 24.6 48.7999 24.6 46.5 24.6C45.7 24.6 45.4 24.4 45.5 23.6C45.5999 21.8 45.5 20.1 45.5 18.3C45.5 18 45.2 17.5 45 17.5C44.1 17.4 43.2999 17.5 42.2999 17.5C42.2999 23.6 42.2999 29.5 42.2999 35.5ZM39.2999 26.5C39.2999 24.2 39.2999 22 39.2999 19.7C39.2999 17.2 39.6 17.6 37.2 17.5C36 17.5 36 17.5 36 18.8C36 23.6 36 28.2999 36 33.0999C36 35.4999 36 35.5 38.4 35.5C39.2 35.5 39.4 35.2 39.4 34.5C39.3 31.7999 39.2999 29.2 39.2999 26.5Z" fill="white"/>
        <path d="M59.5 46.3C60.6 44.4 61.6 42.6 62.5 40.8C65 36.2 67.6 31.7 70.1 27.2C70.4 26.6 70.3 26.2 70 25.7C66.7 19.8 63.4 13.8 60.1 7.80001C59.9 7.50001 59.8 7.10001 59.6 6.80001C62.7 6.20001 65.1 7.10001 66.5 9.70001C69.4 15.1 72.4 20.4 75.4 25.7C75.7 26.2 75.7 26.6 75.4 27.1C72.3 32.6 69.2 38.2 66.1 43.7C65.2 45.4 63.6 46.2 61.8 46.2C61.2 46.3 60.4 46.3 59.5 46.3Z" fill="white"/>
    </g>
    <defs>
        <clipPath id="clip0_1749_823">
            <rect width="88" height="53" fill="white"/>
        </clipPath>
    </defs>
</svg>

<svg xmlns="http://www.w3.org/2000/svg" width="88" height="53" fill="none" viewBox="0 0 88 53">
    <g fill="currentColor" clip-path="url(#a)">
        <path d="M35.8 46.3H16.3c-2.6 0-4.1-1.4-4.1-4V10.7c0-2.5 1.5-4 4-4h39.3c.7 0 1.1.2 1.5.8 3.3 6.1 6.7 12.1 10.1 18.2.3.6.3 1 0 1.6L56.9 45.6c-.3.6-.6.8-1.3.8-6.5-.1-13.1-.1-19.8-.1M21.6 22.9c.1 0 .1-.1.2-.1.2.3.3.5.5.8 2.1 3.3 4.2 6.6 6.1 9.9.9 1.5 1.8 2.2 3.6 2 .9-.1 1.2-.3 1.2-1.2V19.5c0-2.3.3-1.9-2-2-.9 0-1.2.3-1.2 1.2v11.5c-.4-.3-.6-.5-.8-.8C27 26 25 22.7 23 19.5c-1.2-2-1.2-1.9-3.5-1.9-.8 0-1 .3-1 1v15.9c0 .3 0 .6.1 1h1.1c2 0 2 0 2-1.9-.1-3.6-.1-7.1-.1-10.7m20.7 12.6h2.2c.8.1 1-.2 1-1v-6.1c0-.7.2-.9.9-.9h6.2c.6 0 .8.2.8.8v4.9c0 2.3 0 2.3 2.3 2.3.9 0 1.1-.3 1-1.1v-15c0-2.1.4-1.9-1.9-1.9-1.4 0-1.4 0-1.4 1.4v5.7h-6.9c-.8 0-1.1-.2-1-1 .1-1.8 0-3.5 0-5.3 0-.3-.3-.8-.5-.8-.9-.1-1.7 0-2.7 0zm-3-9v-6.8c0-2.5.3-2.1-2.1-2.2-1.2 0-1.2 0-1.2 1.3v14.3c0 2.4 0 2.4 2.4 2.4.8 0 1-.3 1-1-.1-2.7-.1-5.3-.1-8"/>
        <path d="M59.5 46.3c1.1-1.9 2.1-3.7 3-5.5 2.5-4.6 5.1-9.1 7.6-13.6.3-.6.2-1-.1-1.5-3.3-5.9-6.6-11.9-9.9-17.9-.2-.3-.3-.7-.5-1 3.1-.6 5.5.3 6.9 2.9 2.9 5.4 5.9 10.7 8.9 16 .3.5.3.9 0 1.4-3.1 5.5-6.2 11.1-9.3 16.6-.9 1.7-2.5 2.5-4.3 2.5-.6.1-1.4.1-2.3.1"/>
    </g>
    <defs>
        <clipPath id="a">
            <path fill="currentColor" d="M0 0h88v53H0z"/>
        </clipPath>
    </defs>
</svg>
